images/themes/default/algorithms/mAlgorithmRandomGammaRaster.svg

<svg height="24" viewBox="0 0 6.35 6.35" width="24" xmlns="http://www.w3.org/2000/svg"><g fill-rule="evenodd" stroke="#000" stroke-width=".143"><path d="m.189.241h1.485v1.485h-1.485z" fill="#f30"/><path d="m1.674.241h1.485v1.485h-1.485z" fill="#4cba00"/><path d="m3.159.241h1.485v1.485h-1.485z" fill="#e500ff"/><path d="m4.644.241h1.485v1.485h-1.485z" fill="#4cba00"/><path d="m.189 1.725h1.485v1.485h-1.485z" fill="#0308ff"/><path d="m1.674 1.725h1.485v1.485h-1.485z" fill="#da6200"/><path d="m3.159 1.725h1.485v1.485h-1.485z" fill="#f30"/><path d="m4.644 1.725h1.485v1.485h-1.485z" fill="#e500ff"/><path d="m.189 3.21h1.485v1.485h-1.485z" fill="#4cba00"/><path d="m1.674 3.21h1.485v1.485h-1.485z" fill="#e500ff"/><path d="m3.159 3.21h1.485v1.485h-1.485z" fill="#0308ff"/><path d="m4.644 3.21h1.485v1.485h-1.485zm-4.455 1.485h1.485v1.485h-1.485z" fill="#da6200"/><path d="m1.674 4.695h1.485v1.485h-1.485z" fill="#f30"/><path d="m3.159 4.695h1.485v1.485h-1.485z" fill="#4cba00"/><path d="m4.644 4.695h1.485v1.485h-1.485z" fill="#0308ff"/></g><path d="m.543 6.11c.004-1.055.587-2.62 1.374-2.62.938 0 1.372 2.337 4.134 2.337" fill="none" stroke="#fafafa" stroke-width=".563"/></svg>

<svg xmlns="http://www.w3.org/2000/svg" width="24" height="24" viewBox="0 0 6.35 6.35"><path fill="#f30" fill-rule="evenodd" stroke="#000" stroke-width=".143" d="M.189.241h1.485v1.485H.189z"/><path fill="#4cba00" fill-rule="evenodd" stroke="#000" stroke-width=".143" d="M1.674.241h1.485v1.485H1.674z"/><path fill="#e500ff" fill-rule="evenodd" stroke="#000" stroke-width=".143" d="M3.159.241h1.485v1.485H3.159z"/><path fill="#4cba00" fill-rule="evenodd" stroke="#000" stroke-width=".143" d="M4.644.241h1.485v1.485H4.644z"/><path fill="#0308ff" fill-rule="evenodd" stroke="#000" stroke-width=".143" d="M.189 1.725h1.485V3.21H.189z"/><path fill="#da6200" fill-rule="evenodd" stroke="#000" stroke-width=".143" d="M1.674 1.725h1.485V3.21H1.674z"/><path fill="#f30" fill-rule="evenodd" stroke="#000" stroke-width=".143" d="M3.159 1.725h1.485V3.21H3.159z"/><path fill="#e500ff" fill-rule="evenodd" stroke="#000" stroke-width=".143" d="M4.644 1.725h1.485V3.21H4.644z"/><path fill="#4cba00" fill-rule="evenodd" stroke="#000" stroke-width=".143" d="M.189 3.21h1.485v1.485H.189z"/><path fill="#e500ff" fill-rule="evenodd" stroke="#000" stroke-width=".143" d="M1.674 3.21h1.485v1.485H1.674z"/><path fill="#0308ff" fill-rule="evenodd" stroke="#000" stroke-width=".143" d="M3.159 3.21h1.485v1.485H3.159z"/><path fill="#da6200" fill-rule="evenodd" stroke="#000" stroke-width=".143" d="M4.644 3.21h1.485v1.485H4.644zM.189 4.695h1.485V6.18H.189z"/><path fill="#f30" fill-rule="evenodd" stroke="#000" stroke-width=".143" d="M1.674 4.695h1.485V6.18H1.674z"/><path fill="#4cba00" fill-rule="evenodd" stroke="#000" stroke-width=".143" d="M3.159 4.695h1.485V6.18H3.159z"/><path fill="#0308ff" fill-rule="evenodd" stroke="#000" stroke-width=".143" d="M4.644 4.695h1.485V6.18H4.644z"/><path d="M.543 6.11c.004-1.055.587-2.62 1.374-2.62.938 0 1.372 2.337 4.134 2.337" fill="none" stroke="#fafafa" stroke-width=".563"/></svg>
